svg/Tango/apps/internet-mail.svg

<?xml version="1.0" encoding="UTF-8" standalone="no"?>
<!-- Created with Inkscape (http://www.inkscape.org/) -->
<svg
   xmlns:dc="http://purl.org/dc/elements/1.1/"
   xmlns:cc="http://creativecommons.org/ns#"
   xmlns:rdf="http://www.w3.org/1999/02/22-rdf-syntax-ns#"
   xmlns:svg="http://www.w3.org/2000/svg"
   xmlns="http://www.w3.org/2000/svg"
   xmlns:xlink="http://www.w3.org/1999/xlink"
   xmlns:sodipodi="http://sodipodi.sourceforge.net/DTD/sodipodi-0.dtd"
   xmlns:inkscape="http://www.inkscape.org/namespaces/inkscape"
   sodipodi:docname="internet-mail.svg"
   sodipodi:docbase="/home/jimmac/src/cvs/tango-icon-theme/scalable/apps"
   inkscape:version="0.46"
   sodipodi:version="0.32"
   id="svg5816"
   height="48px"
   width="48px"
   inkscape:output_extension="org.inkscape.output.svg.inkscape">
  <defs
     id="defs3">
    <inkscape:perspective
       sodipodi:type="inkscape:persp3d"
       inkscape:vp_x="0 : 24 : 1"
       inkscape:vp_y="0 : 1000 : 0"
       inkscape:vp_z="48 : 24 : 1"
       inkscape:persp3d-origin="24 : 16 : 1"
       id="perspective73" />
    <radialGradient
       inkscape:collect="always"
       xlink:href="#linearGradient5060"
       id="radialGradient6719"
       gradientUnits="userSpaceOnUse"
       gradientTransform="matrix(-2.774389,0,0,1.969706,112.7623,-872.8854)"
       cx="605.71429"
       cy="486.64789"
       fx="605.71429"
       fy="486.64789"
       r="117.14286" />
    <linearGradient
       inkscape:collect="always"
       id="linearGradient5060">
      <stop
         style="stop-color:black;stop-opacity:1;"
         offset="0"
         id="stop5062" />
      <stop
         style="stop-color:black;stop-opacity:0;"
         offset="1"
         id="stop5064" />
    </linearGradient>
    <radialGradient
       inkscape:collect="always"
       xlink:href="#linearGradient5060"
       id="radialGradient6717"
       gradientUnits="userSpaceOnUse"
       gradientTransform="matrix(2.774389,0,0,1.969706,-1891.633,-872.8854)"
       cx="605.71429"
       cy="486.64789"
       fx="605.71429"
       fy="486.64789"
       r="117.14286" />
    <linearGradient
       id="linearGradient5048">
      <stop
         style="stop-color:black;stop-opacity:0;"
         offset="0"
         id="stop5050" />
      <stop
         id="stop5056"
         offset="0.5"
         style="stop-color:black;stop-opacity:1;" />
      <stop
         style="stop-color:black;stop-opacity:0;"
         offset="1"
         id="stop5052" />
    </linearGradient>
    <linearGradient
       inkscape:collect="always"
       xlink:href="#linearGradient5048"
       id="linearGradient6715"
       gradientUnits="userSpaceOnUse"
       gradientTransform="matrix(2.774389,0,0,1.969706,-1892.179,-872.8854)"
       x1="302.85715"
       y1="366.64789"
       x2="302.85715"
       y2="609.50507" />
    <linearGradient
       id="linearGradient28260">
      <stop
         style="stop-color:#9aa29a;stop-opacity:1.0000000;"
         offset="0.0000000"
         id="stop28262" />
      <stop
         style="stop-color:#ffffff;stop-opacity:1.0000000;"
         offset="1.0000000"
         id="stop28264" />
    </linearGradient>
    <linearGradient
       id="linearGradient28254">
      <stop
         id="stop28256"
         offset="0.0000000"
         style="stop-color:#9aa29a;stop-opacity:1.0000000;" />
      <stop
         id="stop28258"
         offset="1.0000000"
         style="stop-color:none" />
    </linearGradient>
    <linearGradient
       id="linearGradient2274">
      <stop
         style="stop-color:#000000;stop-opacity:0.12871288;"
         offset="0.0000000"
         id="stop2276" />
      <stop
         style="stop-color:#000000;stop-opacity:0.0000000;"
         offset="1.0000000"
         id="stop2278" />
    </linearGradient>
    <linearGradient
       id="linearGradient9749">
      <stop
         style="stop-color:#ffffff;stop-opacity:1;"
         offset="0"
         id="stop9751" />
      <stop
         style="stop-color:#ededed;stop-opacity:1.0000000;"
         offset="1.0000000"
         id="stop9753" />
    </linearGradient>
    <linearGradient
       id="linearGradient2152">
      <stop
         style="stop-color:#9aa29a;stop-opacity:1.0000000;"
         offset="0.0000000"
         id="stop2154" />
      <stop
         style="stop-color:#b5beb5;stop-opacity:1.0000000;"
         offset="1.0000000"
         id="stop2156" />
    </linearGradient>
    <linearGradient
       id="linearGradient2166">
      <stop
         style="stop-color:#ffffff;stop-opacity:1;"
         offset="0"
         id="stop2168" />
      <stop
         style="stop-color:#dcdcdc;stop-opacity:1.0000000;"
         offset="1.0000000"
         id="stop2170" />
    </linearGradient>
    <linearGradient
       id="linearGradient18913">
      <stop
         style="stop-color:#ededed;stop-opacity:1.0000000;"
         offset="0.0000000"
         id="stop18915" />
      <stop
         style="stop-color:#c8c8c8;stop-opacity:1.0000000;"
         offset="1.0000000"
         id="stop18917" />
    </linearGradient>
    <linearGradient
       id="linearGradient2136">
      <stop
         style="stop-color:#989690;stop-opacity:1.0000000;"
         offset="0.0000000"
         id="stop2138" />
      <stop
         style="stop-color:#656460;stop-opacity:1.0000000;"
         offset="1.0000000"
         id="stop2140" />
    </linearGradient>
    <linearGradient
       id="linearGradient15107">
      <stop
         style="stop-color:#ffffff;stop-opacity:1.0000000;"
         offset="0.0000000"
         id="stop15109" />
      <stop
         style="stop-color:#e2e2e2;stop-opacity:1.0000000;"
         offset="1.0000000"
         id="stop15111" />
    </linearGradient>
    <linearGradient
       id="linearGradient10691"
       inkscape:collect="always">
      <stop
         id="stop10693"
         offset="0"
         style="stop-color:#000000;stop-opacity:1;" />
      <stop
         id="stop10695"
         offset="1"
         style="stop-color:#000000;stop-opacity:0;" />
    </linearGradient>
    <radialGradient
       r="7.2284161"
       fy="73.615714"
       fx="6.7027131"
       cy="73.615714"
       cx="6.7027131"
       gradientTransform="scale(1.902215,0.525703)"
       gradientUnits="userSpaceOnUse"
       id="radialGradient11382"
       xlink:href="#linearGradient10691"
       inkscape:collect="always" />
    <linearGradient
       y2="32.203162"
       x2="9.7619219"
       y1="37.784682"
       x1="8.7803760"
       gradientTransform="matrix(2.394900,0.000000,0.000000,0.781058,2.879512,0.343005)"
       gradientUnits="userSpaceOnUse"
       id="linearGradient27463"
       xlink:href="#linearGradient2274"
       inkscape:collect="always" />
    <linearGradient
       y2="24.132717"
       x2="21.111549"
       y1="13.686079"
       x1="11.233107"
       gradientTransform="matrix(1.370928,0.000000,0.000000,1.443758,2.431133,-0.140786)"
       gradientUnits="userSpaceOnUse"
       id="linearGradient27468"
       xlink:href="#linearGradient9749"
       inkscape:collect="always" />
    <linearGradient
       y2="52.090678"
       x2="9.8855033"
       y1="37.197018"
       x1="8.9156475"
       gradientTransform="matrix(2.454781,0.000000,0.000000,0.762004,2.879512,0.343005)"
       gradientUnits="userSpaceOnUse"
       id="linearGradient27471"
       xlink:href="#linearGradient2152"
       inkscape:collect="always" />
    <linearGradient
       y2="52.090678"
       x2="9.8855033"
       y1="37.197018"
       x1="8.9156475"
       gradientTransform="matrix(2.454781,0.000000,0.000000,0.762004,2.879512,0.343005)"
       gradientUnits="userSpaceOnUse"
       id="linearGradient27474"
       xlink:href="#linearGradient2152"
       inkscape:collect="always" />
    <linearGradient
       y2="29.568739"
       x2="15.310744"
       y1="15.148383"
       x1="10.184240"
       gradientTransform="matrix(1.819266,0.000000,0.000000,1.028193,2.879512,0.343005)"
       gradientUnits="userSpaceOnUse"
       id="linearGradient27477"
       xlink:href="#linearGradient2166"
       inkscape:collect="always" />
    <linearGradient
       y2="17.876846"
       x2="13.467486"
       y1="7.2310905"
       x1="5.8266134"
       gradientTransform="matrix(1.570607,0.000000,0.000000,1.190976,2.879512,0.343005)"
       gradientUnits="userSpaceOnUse"
       id="linearGradient27483"
       xlink:href="#linearGradient18913"
       inkscape:collect="always" />
    <linearGradient
       y2="26.022910"
       x2="18.475286"
       y1="4.7461626"
       x1="11.572842"
       gradientTransform="matrix(1.343475,0.000000,0.000000,1.417854,2.879511,0.314599)"
       gradientUnits="userSpaceOnUse"
       id="linearGradient27486"
       xlink:href="#linearGradient15107"
       inkscape:collect="always" />
    <linearGradient
       y2="15.257116"
       x2="30.599684"
       y1="15.257116"
       x1="2.0618774"
       gradientTransform="matrix(1.343475,0.000000,0.000000,1.417854,2.879511,0.314599)"
       gradientUnits="userSpaceOnUse"
       id="linearGradient27488"
       xlink:href="#linearGradient2136"
       inkscape:collect="always" />
  </defs>
  <sodipodi:namedview
     inkscape:window-y="105"
     inkscape:window-x="331"
     inkscape:window-height="743"
     inkscape:window-width="872"
     inkscape:document-units="px"
     inkscape:grid-bbox="true"
     showgrid="false"
     inkscape:current-layer="layer1"
     inkscape:cy="18.816166"
     inkscape:cx="28.384904"
     inkscape:zoom="1"
     inkscape:pageshadow="2"
     inkscape:pageopacity="0.0"
     borderopacity="1.0"
     bordercolor="#666666"
     pagecolor="#ffffff"
     id="base" />
  <metadata
     id="metadata4">
    <rdf:RDF>
      <cc:Work
         rdf:about="">
        <dc:format>image/svg+xml</dc:format>
        <dc:type
           rdf:resource="http://purl.org/dc/dcmitype/StillImage" />
        <dc:title>Mail</dc:title>
        <dc:creator>
          <cc:Agent>
            <dc:title>Jakub Steiner</dc:title>
          </cc:Agent>
        </dc:creator>
        <dc:contributor>
          <cc:Agent>
            <dc:title>Andreas Nilsson</dc:title>
          </cc:Agent>
        </dc:contributor>
        <cc:license
           rdf:resource="http://creativecommons.org/licenses/publicdomain/" />
        <dc:subject>
          <rdf:Bag>
            <rdf:li>mail</rdf:li>
            <rdf:li>e-mail</rdf:li>
            <rdf:li>MUA</rdf:li>
          </rdf:Bag>
        </dc:subject>
      </cc:Work>
      <cc:License
         rdf:about="http://creativecommons.org/licenses/publicdomain/">
        <cc:permits
           rdf:resource="http://creativecommons.org/ns#Reproduction" />
        <cc:permits
           rdf:resource="http://creativecommons.org/ns#Distribution" />
        <cc:permits
           rdf:resource="http://creativecommons.org/ns#DerivativeWorks" />
      </cc:License>
    </rdf:RDF>
  </metadata>
  <g
     inkscape:groupmode="layer"
     inkscape:label="Layer 1"
     id="layer1">
    <g
       transform="matrix(2.269972e-2,0,0,2.297929e-2,44.98918,37.78447)"
       id="g6707">
      <rect
         style="opacity:0.40206185;color:black;fill:url(#linearGradient6715);fill-opacity:1;fill-rule:nonzero;stroke:none;stroke-width:1;stroke-linecap:round;stroke-linejoin:miter;marker:none;marker-start:none;marker-mid:none;marker-end:none;stroke-miterlimit:4;stroke-dasharray:none;stroke-dashoffset:0;stroke-opacity:1;visibility:visible;display:inline;overflow:visible"
         id="rect6709"
         width="1339.6335"
         height="478.35718"
         x="-1559.2523"
         y="-150.69685" />
      <path
         style="opacity:0.40206185;color:black;fill:url(#radialGradient6717);fill-opacity:1;fill-rule:nonzero;stroke:none;stroke-width:1;stroke-linecap:round;stroke-linejoin:miter;marker:none;marker-start:none;marker-mid:none;marker-end:none;stroke-miterlimit:4;stroke-dasharray:none;stroke-dashoffset:0;stroke-opacity:1;visibility:visible;display:inline;overflow:visible"
         d="M -219.61876,-150.68038 C -219.61876,-150.68038 -219.61876,327.65041 -219.61876,327.65041 C -76.744594,328.55086 125.78146,220.48075 125.78138,88.454235 C 125.78138,-43.572302 -33.655436,-150.68036 -219.61876,-150.68038 z "
         id="path6711"
         sodipodi:nodetypes="cccc" />
      <path
         sodipodi:nodetypes="cccc"
         id="path6713"
         d="M -1559.2523,-150.68038 C -1559.2523,-150.68038 -1559.2523,327.65041 -1559.2523,327.65041 C -1702.1265,328.55086 -1904.6525,220.48075 -1904.6525,88.454235 C -1904.6525,-43.572302 -1745.2157,-150.68036 -1559.2523,-150.68038 z "
         style="opacity:0.40206185;color:black;fill:url(#radialGradient6719);fill-opacity:1;fill-rule:nonzero;stroke:none;stroke-width:1;stroke-linecap:round;stroke-linejoin:miter;marker:none;marker-start:none;marker-mid:none;marker-end:none;stroke-miterlimit:4;stroke-dasharray:none;stroke-dashoffset:0;stroke-opacity:1;visibility:visible;display:inline;overflow:visible" />
    </g>
    <path
       style="fill:url(#linearGradient27486);fill-opacity:1.0000000;fill-rule:evenodd;stroke:url(#linearGradient27488);stroke-width:0.85660440;stroke-linecap:butt;stroke-linejoin:round;stroke-miterlimit:4.0000000;stroke-opacity:1.0000000"
       d="M 6.3334395,16.972251 L 6.3334395,41.481799 L 43.305555,41.481799 L 43.244499,17.089859 C 43.241050,15.712272 31.395999,2.4121110 29.210877,2.4121110 L 20.659391,2.4121110 C 18.362072,2.4121110 6.3334395,15.673953 6.3334395,16.972251 z "
       id="path12723"
       sodipodi:nodetypes="ccczzzz" />
    <path
       style="fill:url(#linearGradient27483);fill-opacity:1.0000000;fill-rule:evenodd;stroke:none;stroke-width:0.25000000pt;stroke-linecap:butt;stroke-linejoin:miter;stroke-opacity:1.0000000"
       d="M 6.9230610,16.787103 C 6.5250222,16.356975 18.809966,3.0935378 20.667210,3.0935378 L 29.042965,3.0935378 C 30.790449,3.0935378 43.079567,16.221603 42.470079,16.978956 L 31.608858,30.475150 L 19.295373,30.156846 L 6.9230610,16.787103 z "
       id="path18153"
       sodipodi:nodetypes="czzzccz" />
    <path
       style="fill:#000000;fill-opacity:0.14619882;fill-rule:evenodd;stroke:none;stroke-width:1.0000000;stroke-linecap:butt;stroke-linejoin:miter;stroke-miterlimit:4.0000000;stroke-opacity:1.0000000"
       d="M 19.077530,30.017590 L 11.744526,21.271586 L 36.562951,14.335513 L 39.592221,20.551966 L 32.175956,29.992298"
       id="path2164"
       sodipodi:nodetypes="ccccc" />
    <path
       style="fill:#000000;fill-opacity:0.14619882;fill-rule:evenodd;stroke:none;stroke-width:1.0000000;stroke-linecap:butt;stroke-linejoin:miter;stroke-miterlimit:4.0000000;stroke-opacity:1.0000000"
       d="M 18.291767,29.836259 L 10.809167,21.026146 L 35.456637,14.132812 L 38.630714,20.403811 L 31.390193,29.810968"
       id="path2162"
       sodipodi:nodetypes="ccccc" />
    <path
       style="fill:#000000;fill-opacity:0.14619882;fill-rule:evenodd;stroke:none;stroke-width:1.0000000;stroke-linecap:butt;stroke-linejoin:miter;stroke-miterlimit:4.0000000;stroke-opacity:1.0000000"
       d="M 18.775313,29.957146 L 11.100386,21.296624 L 36.068405,14.232329 L 39.354114,20.824726 L 31.873739,29.931855"
       id="path2160"
       sodipodi:nodetypes="ccccc" />
    <path
       style="fill:url(#linearGradient27477);fill-opacity:1.0000000;fill-rule:evenodd;stroke:none;stroke-width:1.0000000;stroke-linecap:butt;stroke-linejoin:miter;stroke-miterlimit:4.0000000;stroke-opacity:1.0000000"
       d="M 18.593984,30.440693 L 11.260975,21.694689 L 35.972554,14.801355 L 39.083369,21.188770 L 31.963198,30.174701"
       id="path15105"
       sodipodi:nodetypes="ccccc" />
    <path
       style="fill:url(#linearGradient27474);fill-opacity:1.0000000;fill-rule:evenodd;stroke:none;stroke-width:1.0000000;stroke-linecap:butt;stroke-linejoin:miter;stroke-miterlimit:4.0000000;stroke-opacity:1.0000000"
       d="M 20.488434,29.064331 L 7.0924698,40.036319 L 21.001312,30.432013 L 30.019470,30.432013 L 42.438517,39.914206 L 30.575092,29.064331 L 20.488434,29.064331 z "
       id="path14245"
       sodipodi:nodetypes="ccccccc" />
    <path
       style="color:#000000;fill:url(#linearGradient27471);fill-opacity:1.0000000;fill-rule:evenodd;stroke:none;stroke-width:1.0000000;stroke-linecap:butt;stroke-linejoin:miter;marker:none;marker-start:none;marker-mid:none;marker-end:none;stroke-miterlimit:4.0000000;stroke-dashoffset:0.0000000;stroke-opacity:1.0000000;visibility:visible;display:inline;overflow:visible"
       d="M 6.9634751,16.885144 L 18.479648,31.201334 L 19.548151,30.346532 L 6.9634751,16.885144 z "
       id="path14339"
       sodipodi:nodetypes="cccc" />
    <path
       style="fill:none;fill-opacity:0.75000000;fill-rule:evenodd;stroke:url(#linearGradient27468);stroke-width:0.85660428;stroke-linecap:butt;stroke-linejoin:miter;stroke-miterlimit:4.0000000;stroke-opacity:1.0000000"
       d="M 7.3077115,17.131415 L 7.3388644,40.342421 L 42.283659,40.342421 L 42.221353,17.257512 C 42.219329,16.508413 31.005032,3.4591863 28.837233,3.4591863 L 20.941579,3.4591863 C 18.689313,3.4591863 7.3066655,16.351067 7.3077115,17.131415 z "
       id="path15103"
       sodipodi:nodetypes="ccczzzz" />
    <path
       style="fill:#ffffff;fill-opacity:1.0000000;fill-rule:evenodd;stroke:none;stroke-width:1.0000000;stroke-linecap:butt;stroke-linejoin:miter;stroke-miterlimit:4.0000000;stroke-opacity:1.0000000"
       d="M 20.957271,30.452732 L 9.0157722,38.723588 L 11.235205,38.729695 L 21.233330,31.860755 L 30.055238,30.437917 L 20.957271,30.452732 z "
       id="path17393"
       sodipodi:nodetypes="cccccc" />
    <path
       style="fill:#ffffff;fill-opacity:1.0000000;fill-rule:evenodd;stroke:none;stroke-width:1.0000000px;stroke-linecap:butt;stroke-linejoin:miter;stroke-opacity:1.0000000"
       d="M 11.427536,21.670296 L 12.752479,23.080719 L 35.543311,16.196529 L 38.458445,21.878896 L 39.072496,21.166981 L 36.003081,14.789145 L 11.427536,21.670296 z "
       id="path2174"
       sodipodi:nodetypes="ccccccc" />
    <path
       style="fill:url(#linearGradient27463);fill-opacity:1.0000000;fill-rule:evenodd;stroke:none;stroke-width:1.0000000px;stroke-linecap:butt;stroke-linejoin:miter;stroke-opacity:1.0000000"
       d="M 13.308098,23.636340 L 19.334450,30.090093 L 20.531174,29.064331 L 30.617831,29.107071 L 31.429893,29.833651 L 35.404721,25.089502 C 34.250740,23.679081 13.308098,23.636340 13.308098,23.636340 z "
       id="path2272"
       sodipodi:nodetypes="ccccccc" />
    <path
       sodipodi:nodetypes="cccc"
       id="path27492"
       d="M 41.812936,17.847945 L 31.861315,30.479232 L 30.792812,29.624431 L 41.812936,17.847945 z "
       style="color:#000000;fill:#b1b1b1;fill-opacity:1.0000000;fill-rule:evenodd;stroke:none;stroke-width:1.0000000;stroke-linecap:butt;stroke-linejoin:miter;marker:none;marker-start:none;marker-mid:none;marker-end:none;stroke-miterlimit:4.0000000;stroke-dashoffset:0.0000000;stroke-opacity:1.0000000;visibility:visible;display:inline;overflow:visible" />
  </g>
</svg>

<svg xmlns="http://www.w3.org/2000/svg" xmlns:xlink="http://www.w3.org/1999/xlink" viewBox="0 0 48 48"><defs><linearGradient y2="52.09" x2="9.886" y1="37.2" x1="8.916" gradientTransform="matrix(2.45478 0 0 .762 2.88.343)" gradientUnits="userSpaceOnUse" id="6"><stop stop-color="#9aa29a"/><stop offset="1" stop-color="#b5beb5"/></linearGradient><linearGradient y2="29.569" x2="15.311" y1="15.15" x1="10.184" gradientTransform="matrix(1.81927 0 0 1.02819 2.88.343)" gradientUnits="userSpaceOnUse" id="7"><stop stop-color="#fff"/><stop offset="1" stop-color="#dcdcdc"/></linearGradient><linearGradient y2="26.02" x2="18.475" y1="4.746" x1="11.573" gradientTransform="matrix(1.34347 0 0 1.41785 2.88.315)" gradientUnits="userSpaceOnUse" id="9"><stop stop-color="#fff"/><stop offset="1" stop-color="#e2e2e2"/></linearGradient><linearGradient y2="17.877" x2="13.467" y1="7.231" x1="5.827" gradientTransform="matrix(1.57061 0 0 1.19098 2.88.343)" gradientUnits="userSpaceOnUse" id="8"><stop stop-color="#ededed"/><stop offset="1" stop-color="#c8c8c8"/></linearGradient><linearGradient y2="24.13" x2="21.11" y1="13.686" x1="11.233" gradientTransform="matrix(1.37093 0 0 1.44376 2.431-.141)" gradientUnits="userSpaceOnUse" id="5"><stop stop-color="#fff"/><stop offset="1" stop-color="#ededed"/></linearGradient><linearGradient x2="30.6" x1="2.062" gradientTransform="matrix(1.34347 0 0 1.41785 2.88.315)" gradientUnits="userSpaceOnUse" id="A"><stop stop-color="#989690"/><stop offset="1" stop-color="#656460"/></linearGradient><linearGradient id="1"><stop/><stop offset="1" stop-opacity="0"/></linearGradient><linearGradient y2="32.2" x2="9.762" y1="37.785" x1="8.78" gradientTransform="matrix(2.3949 0 0 .78106 2.88.343)" gradientUnits="userSpaceOnUse" id="4"><stop stop-opacity=".129"/><stop offset="1" stop-opacity="0"/></linearGradient><linearGradient id="3" gradientUnits="userSpaceOnUse" gradientTransform="matrix(2.77439 0 0 1.96971-1892.18-872.89)" y1="366.65" x2="0" y2="609.51"><stop stop-opacity="0"/><stop offset=".5"/><stop offset="1" stop-opacity="0"/></linearGradient><radialGradient xlink:href="#1" id="2" gradientUnits="userSpaceOnUse" gradientTransform="matrix(2.77439 0 0 1.96971-1891.63-872.89)" cx="605.71" cy="486.65" r="117.14"/><radialGradient xlink:href="#1" id="0" gradientUnits="userSpaceOnUse" gradientTransform="matrix(-2.77439 0 0 1.96971 112.76-872.89)" cx="605.71" cy="486.65" r="117.14"/></defs><g transform="matrix(.0227 0 0 .02298 44.989 37.784)" color="#000"><path opacity=".402" fill="url(#3)" d="m-1559.25-150.7h1339.63v478.36h-1339.63z"/><path d="m-219.62-150.68c0 0 0 478.33 0 478.33 142.87.9 345.4-107.17 345.4-239.2 0-132.03-159.44-239.13-345.4-239.13" opacity=".402" fill="url(#2)"/><path d="m-1559.25-150.68c0 0 0 478.33 0 478.33-142.87.9-345.4-107.17-345.4-239.2 0-132.03 159.44-239.13 345.4-239.13" opacity=".402" fill="url(#0)"/></g><g fill-rule="evenodd"><path d="m6.333 16.972v24.51h36.972l-.061-24.392c-.003-1.378-11.848-14.678-14.03-14.678h-8.551c-2.297 0-14.326 13.262-14.326 14.56z" fill="url(#9)" stroke="url(#A)" stroke-linejoin="round" stroke-width=".857"/><path d="m6.923 16.787c-.398-.43 11.887-13.694 13.744-13.694h8.376c1.747 0 14.04 13.13 13.427 13.885l-10.861 13.496-12.313-.318-12.372-13.37" fill="url(#8)"/><g fill-opacity=".146"><path d="m19.08 30.02l-7.333-8.746 24.818-6.936 3.03 6.216-7.416 9.44"/><path d="m18.292 29.836l-7.483-8.81 24.647-6.893 3.174 6.271-7.241 9.407"/><path d="m18.775 29.957l-7.675-8.661 24.968-7.06 3.286 6.592-7.48 9.107"/></g><path d="m18.594 30.441l-7.333-8.746 24.712-6.893 3.111 6.387-7.12 8.986" fill="url(#7)"/><g fill="url(#6)"><path d="m20.488 29.06l-13.396 10.972 13.909-9.604h9.02l12.419 9.482-11.863-10.85h-10.09"/><path d="m6.963 16.885l11.516 14.316 1.069-.855-12.585-13.461" color="#000"/></g><path d="m7.308 17.13l.031 23.21h34.945l-.062-23.08c-.002-.749-11.216-13.798-13.384-13.798h-7.896c-2.252 0-13.635 12.892-13.634 13.672z" fill="none" stroke="url(#5)" fill-opacity=".75" stroke-width=".857"/><g fill="#fff"><path d="m20.957 30.453l-11.941 8.271 2.219.006 9.998-6.869 8.822-1.423-9.1.015"/><path d="m11.428 21.67l1.325 1.41 22.791-6.884 2.915 5.682.614-.712-3.069-6.378-24.576 6.881"/></g><path d="m13.308 23.636l6.03 6.454 1.197-1.026 10.09.043.812.727 3.975-4.744c-1.154-1.41-22.1-1.453-22.1-1.453" fill="url(#4)"/><path d="m41.813 17.848l-9.952 12.631-1.069-.855 11.02-11.776" color="#000" fill="#b1b1b1"/></g></svg>
